X:1
T:Title
L:1/8
M:4/4
I:linebreak $
K:A
V:1 treble nm="Voice"
V:1
"A" A2 Ac B2 A2 | ABcA eABc |"D" d2 fd"A" c2 ec |"E" BABc B2 E2 |"A" A2 Ac B2 A2 | ABcA eABc | %6
"D" d2 fd"A" c2 ec |1"E" BABc"A" A2 E2 :|2"E" BABc"A" A2 cd |:"A" ecAc e2 de |"D" fdAd f2 ed | %11
"A" ceAc e2 Bc |"D" dBBA"E" B2 cd |"A" ecAc e2 de |"D" fdAd f2 ed |"A" ceAc"E" BABc |1 %16
"A" Aaec A2 cd :|2"A" Aaec A2 E2 |] %18
